static/icons/html.svg

<svg width="43" height="48" viewBox="0 0 43 48" fill="none" xmlns="http://www.w3.org/2000/svg">
<path d="M3.85027 43.2163L0 0H42.3296L38.4793 43.193L21.1298 48" fill="#E44D26"/>
<path d="M21.1646 44.3257V3.54785H38.4674L35.1655 40.4171" fill="#F16529"/>
<path d="M7.86377 8.83105H21.1647V14.1281H13.6742L14.1642 19.5535H21.1647V24.8388H9.31054L7.86377 8.83105ZM9.54389 27.499H14.8643L15.2376 31.7343L21.1647 33.3211V38.8515L10.2906 35.8179" fill="#EBEBEB"/>
<path d="M34.4187 8.83105H21.1411V14.1281H33.9287L34.4187 8.83105ZM33.4503 19.5535H21.1411V24.8505H27.6749L27.0565 31.7343L21.1411 33.3211V38.8281L31.9919 35.8179" fill="#1E2235"/>
</svg>

<svg width="43" height="48" fill="none" xmlns="http://www.w3.org/2000/svg"><path d="M3.85 43.216 0 0h42.33l-3.85 43.193L21.13 48" fill="#E44D26"/><path d="M21.165 44.326V3.548h17.302l-3.301 36.87" fill="#F16529"/><path d="M7.864 8.831h13.3v5.297h-7.49l.49 5.425h7v5.286H9.312L7.864 8.83Zm1.68 18.668h5.32l.374 4.235 5.927 1.587v5.53L10.29 35.819" fill="#EBEBEB"/><path d="M34.419 8.831H21.14v5.297h12.79l.49-5.297Zm-.969 10.723H21.141v5.297h6.534l-.619 6.883-5.915 1.587v5.507l10.85-3.01" fill="#1E2235"/></svg>
